X:150
T:Charleston Hornpipe
M:C|
L:1/8
Q:120
R:Hornpipe (Key of D)
K:Dmaj
FE |: "D"DFAF BFAF | defd "G"efdB | "D"~A2FB AFED | "A"EFGF E2FE |
"D"DFAF BFAF | defd "G"efdB |1 "D"~A2FB "A"AFEF | "D"D2DE D2FE :|2 "D"~A2FB "A"AFEF | "D"D2DE D2de ||
"D"fdcd Adcd | (3fed ad bdad | "G"gfed "D/F#"(3Bcd ef | "Em"g2bg "A"afge |
"D"Adcd "G"Gdcd | "D"Fdcd "A"Edcd | "D"Adfa "A"gedc | "D"dAFA d2de |
fdcd Adcd | (3fed ad bdad | "G"gfed "D/F#"(3Bcd ef | "Em"g2 bg "A"afge |
"D"Ad(3Bcd "G"Gd(3Bcd | "D"Fd(3Bcd "A"Ed(3Bcd | "D"Adfa "A"gedc | "D"dAFA d2 |]
